packages/swarm-icons/src/icons/line/Bookmark.svg

<svg xmlns="http://www.w3.org/2000/svg" width="24" height="24" viewBox="0 0 24 24">
  <path fill="#757575" d="M18.5,20.4033803 L18.5,4.5 C18.5,3.67157288 17.8284271,3 17,3 L7,3 C6.17157288,3 5.5,3.67157288 5.5,4.5 L5.5,20.4033803 L12,14.7571785 L18.5,20.4033803 Z M4.5,22.5966197 L4.5,4.5 C4.5,3.11928813 5.61928813,2 7,2 L17,2 C18.3807119,2 19.5,3.11928813 19.5,4.5 L19.5,22.5966197 L12,16.0817715 L4.5,22.5966197 Z"/>
</svg>

<svg xmlns="http://www.w3.org/2000/svg" width="24" height="24"><path fill="#757575" d="M18.5 20.403V4.5A1.5 1.5 0 0017 3H7a1.5 1.5 0 00-1.5 1.5v15.903l6.5-5.646 6.5 5.646zm-14 2.194V4.5A2.5 2.5 0 017 2h10a2.5 2.5 0 012.5 2.5v18.097L12 16.082l-7.5 6.515z"/></svg>
